!!!OTL: Hongjun laishi xileiliu
!!!ARE: Asia, China,ÿZhejiang Taishun
!! III, 620, 1)
!!!SCT: C1901
!!!YEM: Copyright 1995, estate of Helmut Schaffrath.
**kern
*ICvox
*Ivox
!! Mixed meters:  3/8; 4/8
*M4/8
*k[f#c#]
*D:
{8a
8b
8dd
8ff#
=1
*M3/8
8dd
8ff#
8ee
=2
8dd
8ff#
16e
16ff#
=3
*M4/8
4ee
16dd
16ee
16dd
16b
=4
4.a
8b}
=5
{8dd
8ee
8dd
8ee
=6
4.dd
8ee
=7
8ee
8dd
4b
=8
16a
16b
4a
8r}
=9
{8f#
8dd
8b
8dd
=10
4.a
16a
16b
=11
*M3/8
8ee
8dd
8ee
=12
*M4/8
4.dd
8ee}
=13
{8dd
8ee
8b
8dd
=14
4.a
8b
=15
8b
8ee
4b
=16
16a
16b
4.a}
==
!!!AGN: Shange
!!!AMT: irregular
!!!AIN: vox
!!!EED: Helmut Schaffrath
!!!EEV: 1.0
*-
